**kern	**kern
*part1	*part1
*staff2	*staff1
*I"Piano	*
*clefF4	*clefG2
*k[f#c#]	*k[f#c#]
=1	=1
4.Cn	8r
.	8AL
.	8cnJ
4.D-X	8fnL
.	8Bn
.	8GJ
=	=
4.Cn	8eL
.	8cn
.	8GJ
4.BB-X	8eL
.	8d
.	8GJ
=	=
2.AA	8r
.	8GL
.	8c#XJ
.	8eL
.	8c#
.	8GJ
=	=
2.GG	8r
.	8AL
.	8c#XJ
.	8eL 8a
.	8c#
.	8AJ
=	=
2.FFn	8r
.	8AL
.	8dJ
.	8aL
.	8d
.	8AJ
=	=
2.DD 2.D	8r
.	8FnL
.	8AJ
.	8dL 8fn
.	8A
.	8FJ
=	=
2.BBBn 2.BBn	8rff
.	8EL<
.	8G#XJ<
.	8dL< 8e<
.	8Gn<
.	8EJ<
=	=
2.EE 2.E	8fnL
.	8d
.	8G#XJ
.	8eL
.	8d
.	8G#J
=	=
*-	*-
!!!system-decoration: {(s1,s2)}
!!!RDF**kern: < = below
